flaticon/outdoor/log.svg

<svg xmlns="http://www.w3.org/2000/svg" width="32" height="32" viewBox="0 0 24 24">
    <path d="M 22.007812 2.601562 L 21.984375 2.601562 C 21.738281 1.289062 19.097656 0 14.808594 0 C 10.519531 0 7.878906 1.289062 7.632812 2.601562 L 7.605469 2.601562 C 7.605469 2.636719 7.613281 2.675781 7.617188 2.710938 C 7.613281 2.742188 7.605469 2.769531 7.605469 2.800781 L 7.605469 6.175781 L 6.507812 5.074219 C 6.5 5.066406 6.492188 5.0625 6.484375 5.054688 C 6.476562 5.046875 6.46875 5.035156 6.460938 5.027344 L 6.457031 5.03125 C 5.949219 4.628906 4.410156 4.628906 3.324219 5.71875 C 2.257812 6.785156 1.71875 8.789062 2.132812 9.359375 L 2.125 9.367188 C 2.132812 9.375 2.144531 9.382812 2.15625 9.390625 C 2.160156 9.398438 2.164062 9.40625 2.171875 9.414062 L 7.605469 14.847656 L 7.605469 21.398438 C 7.605469 23.003906 10.367188 24 14.808594 24 C 19.246094 24 22.007812 23.003906 22.007812 21.398438 L 22.007812 2.800781 C 22.007812 2.769531 22 2.742188 21.996094 2.710938 C 22 2.675781 22.007812 2.636719 22.007812 2.601562 Z M 14.808594 0.800781 C 19.121094 0.800781 21.042969 2.113281 21.191406 2.722656 C 21.042969 3.746094 19.03125 4.800781 14.808594 4.800781 C 10.582031 4.800781 8.574219 3.746094 8.421875 2.722656 C 8.570312 2.113281 10.496094 0.800781 14.808594 0.800781 Z M 3.890625 6.28125 C 4.726562 5.445312 5.714844 5.546875 5.917969 5.628906 C 6.042969 5.789062 6.046875 6.085938 5.917969 6.457031 C 5.753906 6.933594 5.390625 7.472656 4.925781 7.9375 C 4.042969 8.820312 3.175781 9.082031 2.785156 8.859375 C 2.761719 8.476562 3.050781 7.121094 3.890625 6.28125 Z M 19.207031 22.742188 L 19.207031 20.800781 C 19.207031 20.578125 19.027344 20.398438 18.808594 20.398438 C 18.585938 20.398438 18.40625 20.578125 18.40625 20.800781 L 18.40625 22.800781 C 18.40625 22.839844 18.417969 22.878906 18.429688 22.917969 C 17.960938 23.003906 17.417969 23.074219 16.808594 23.121094 L 16.808594 19.601562 C 16.808594 19.378906 16.628906 19.199219 16.40625 19.199219 C 16.1875 19.199219 16.007812 19.378906 16.007812 19.601562 L 16.007812 23.171875 C 15.75 23.183594 15.484375 23.191406 15.207031 23.195312 L 15.207031 22.398438 C 15.207031 22.179688 15.027344 22 14.808594 22 C 14.585938 22 14.40625 22.179688 14.40625 22.398438 L 14.40625 23.195312 C 13.984375 23.1875 13.578125 23.175781 13.207031 23.152344 L 13.207031 20.398438 C 13.207031 20.179688 13.027344 20 12.808594 20 C 12.585938 20 12.40625 20.179688 12.40625 20.398438 L 12.40625 23.089844 C 11.609375 23.007812 10.949219 22.886719 10.40625 22.742188 L 10.40625 17.601562 C 10.40625 17.378906 10.226562 17.199219 10.007812 17.199219 C 9.785156 17.199219 9.605469 17.378906 9.605469 17.601562 L 9.605469 22.476562 C 8.769531 22.136719 8.40625 21.730469 8.40625 21.398438 L 8.40625 14.683594 C 8.40625 14.574219 8.363281 14.472656 8.289062 14.398438 L 3.574219 9.683594 C 4.179688 9.542969 4.851562 9.140625 5.488281 8.503906 C 6.046875 7.949219 6.464844 7.3125 6.671875 6.71875 C 6.707031 6.628906 6.730469 6.539062 6.753906 6.449219 L 7.722656 7.421875 C 7.839844 7.535156 8.011719 7.570312 8.160156 7.507812 C 8.308594 7.445312 8.40625 7.300781 8.40625 7.140625 L 8.40625 4.132812 C 8.722656 4.394531 9.125 4.621094 9.605469 4.820312 L 9.605469 8 C 9.605469 8.222656 9.785156 8.398438 10.007812 8.398438 C 10.226562 8.398438 10.40625 8.222656 10.40625 8 L 10.40625 5.089844 C 10.773438 5.191406 11.175781 5.28125 11.605469 5.355469 L 11.605469 10.800781 C 11.605469 11.019531 11.785156 11.199219 12.007812 11.199219 C 12.226562 11.199219 12.40625 11.019531 12.40625 10.800781 L 12.40625 5.46875 C 13.136719 5.554688 13.941406 5.601562 14.808594 5.601562 C 14.945312 5.601562 15.074219 5.59375 15.207031 5.59375 L 15.207031 6.800781 C 15.207031 7.019531 15.386719 7.199219 15.605469 7.199219 C 15.828125 7.199219 16.007812 7.019531 16.007812 6.800781 L 16.007812 5.566406 C 16.730469 5.53125 17.398438 5.457031 18.007812 5.355469 L 18.007812 11.199219 C 18.007812 11.421875 18.1875 11.601562 18.40625 11.601562 C 18.628906 11.601562 18.808594 11.421875 18.808594 11.199219 L 18.808594 5.199219 C 18.808594 5.199219 18.804688 5.195312 18.804688 5.191406 C 19.089844 5.125 19.359375 5.050781 19.605469 4.96875 L 19.605469 8 C 19.605469 8.222656 19.785156 8.398438 20.007812 8.398438 C 20.226562 8.398438 20.40625 8.222656 20.40625 8 L 20.40625 4.636719 C 20.714844 4.484375 20.984375 4.320312 21.207031 4.132812 L 21.207031 21.398438 C 21.207031 21.820312 20.621094 22.363281 19.207031 22.742188 Z M 19.207031 22.742188"/>
</svg>

<svg xmlns="http://www.w3.org/2000/svg" width="32" height="32" viewBox="0 0 24 24">
    <path d="M22.008 2.602h-.024C21.738 1.289 19.098 0 14.81 0c-4.29 0-6.93 1.29-7.176 2.602h-.028c0 .035.008.074.012.109-.004.031-.012.059-.012.09v3.375L6.508 5.074c-.008-.008-.016-.011-.024-.02l-.023-.027-.004.004c-.508-.402-2.047-.402-3.133.688-1.066 1.066-1.605 3.07-1.191 3.64l-.008.008c.008.008.02.016.031.024a.082.082 0 0 0 .016.023l5.433 5.434v6.55c0 1.606 2.762 2.602 7.204 2.602 4.437 0 7.199-.996 7.199-2.602V2.801c0-.031-.008-.059-.012-.09.004-.035.012-.074.012-.11zM14.808.8c4.313 0 6.235 1.312 6.383 1.922-.148 1.023-2.16 2.078-6.382 2.078-4.227 0-6.235-1.055-6.387-2.078C8.57 2.113 10.496.8 14.809.8zM3.892 6.28c.836-.836 1.824-.734 2.027-.652.125.16.129.457 0 .828-.164.477-.527 1.016-.992 1.48-.883.883-1.75 1.145-2.14.922-.024-.382.265-1.738 1.105-2.578zm15.316 16.461v-1.941a.401.401 0 1 0-.8 0v2c0 .039.011.078.023.117a15.77 15.77 0 0 1-1.621.203v-3.52a.401.401 0 0 0-.8 0l-.001 3.57c-.258.013-.524.02-.801.024v-.797a.4.4 0 0 0-.8 0v.797a27.51 27.51 0 0 1-1.2-.043v-2.754a.4.4 0 0 0-.8 0v2.692a12.992 12.992 0 0 1-2-.348v-5.14a.401.401 0 1 0-.802 0v4.875c-.835-.34-1.199-.747-1.199-1.079v-6.714c0-.11-.043-.211-.117-.286L3.574 9.684c.606-.141 1.278-.543 1.914-1.18.559-.555.977-1.191 1.184-1.785.035-.09.058-.18.082-.27l.969.973a.4.4 0 1 0 .684-.281V4.133c.316.262.718.488 1.198.687V8c0 .223.18.398.403.398A.398.398 0 0 0 10.406 8V5.09c.367.101.77.191 1.2.265v5.446a.401.401 0 0 0 .8 0V5.469c.73.086 1.535.133 2.403.133.136 0 .265-.008.398-.008V6.8a.4.4 0 0 0 .8 0V5.566a17.29 17.29 0 0 0 2-.21v5.843a.401.401 0 1 0 .802 0v-6s-.004-.004-.004-.008a9.02 9.02 0 0 0 .8-.222V8c0 .223.18.398.403.398A.398.398 0 0 0 20.406 8V4.637c.309-.153.578-.317.801-.504v17.265c0 .422-.586.965-2 1.344zm0 0"/>
</svg>
